X: 305549
M: 2/4
L: 1/16
K: Bb
|: f2 |\
b2fe defd | Bcd{c}B .F2.B2 | dBgf edcB | ABcd .c2.f2 |\
b2fe defd | Bcd{c}B .F2.B2 | dfgf edcd | B2d2B2 :|
|: B2 |\
bfdB {d}cBcd | BFBd {d}cBcd | egfe dfec | B2d2B2 :|


